!! 00000] TT[WS
!!!OTL: You huayuan
!!!ARE: Asia, China,ÿShanxi Lingqiu
!! Ethnic Group: Han
!! WI, 186 (1)
!!!SCT: J0220
!!!YEM: Copyright 1995, estate of Helmut Schaffrath.
**kern
*ICvox
*Ivox
*M2/4
*k[f#]
*G:
{8dd
8b
4a
=1
8dd
16b
16dd
4a
=2
8dd
8dd
8b
8dd
=3
8b
8a
4g}
=4
{8a
8g
8a
8a
=5
8b
4.dd
=6
8dd
8a
8b
8a
=7
8g
8e
4d}
=8
{8a
16a
16b
4dd
=9
16e
16g
8a
4d
=10
8.dd
16b
16a
16b
16a
16g
=11
16e
16g
8a
4d
=12
8a
8a
16b
16a
8g
=13
2a}
=14
{8dd
8b
8dd
8dd
=15
8e
8b
8a
8e
=16
8g
4d
8r
=17
8dd
4a
8r
=18
16a
16g
8e
4d}
==
!!!AGN: Xiaodiao. Fengsuge, Qingge
!!!ONB: ESAC (Essen Associative Code) Database: CHINA
!!!AMT: simple duple
!!!AIN: vox
!!!EED: Helmut Schaffrath
!!!EEV: 1.0
*-
